X:1
T:Royal Australian Navy
T:March
T:Alex F. Lithgow
T:Arr: G Hutch
T:Organ
%%score { ( 1 2 5 ) | ( 3 4 ) } ( 6 7 )
L:1/8
Q:1/4=114
M:2/4
K:C
V:1 treble nm="Manuals"
V:2 treble 
V:5 treble 
V:3 bass 
V:4 bass 
V:6 bass nm="Pedal"
V:7 bass 
V:1
"^\n\n"!f! cG/c/ e2- | ec/e/ g/e/c/e/ | gg/g/ gg | [GBdg]G/A/ B/c/d/_e/ || e[ce] B[Ae] | %5
 e/f/[Gg] e/f/[Gg] | e[ce] B[Ae] | e/f/[Gg] e/f/[Gg] | [Ba]>[GB] [GB]2- | [GB][Bd] [df][fa] | %10
 [eg]>[Gc] [Ec]2- | [Ec]G/A/ B/c/d/_e/ | e[ce] B[Ae] | e/f/[Gg] e/f/[Gg] | e[ce] B[Ae] | %15
 e/f/[Gg] e/f/[Gg] | [GBd]G/B/ d/G/B/d/ | g[^A^cg] [_Bc^f][Bce] | [Bd]2 [c^f]2 | %19
 [Bg]2!mf! [Aa]>[Gg] | [GB] [GB]2 [Ac] | d2 x2 | [Ec] [Ec]2 [Gd] | [ce]4 | [A^c] [Ac]2 [Bd] | %25
 e2 x2 | [Fd] [Fd]2 [Ae] | x f3 | [Ba] [Ba]2 [cg] | [df][Bd]/[ce]/ [df]/[Bd]/[ce]/[df]/ | %30
 [eg] [eg]2 [df] | [ce](3c/d/c/ Bc | d>d [B_e]>e | [Be]>e [A^f]>f | [GBg][Gg]/[Gg]/ [Gg][Gg] | %35
 [Gg]!f!G/A/ B/c/d/_e/ | e[ce] B[Ae] | e/f/[Gg] e/f/[Gg] | e[ce] B[Ae] | e/f/[Gg] e/f/[Gg] | %40
 [Ba]>[GB] [GB]2- | [GB][Bd] [df][fa] | [eg]>[Gc] [Ec]2- | [Ec]G/A/ B/c/d/_e/ | e[ce] B[Ae] | %45
 e/f/[Gg] e/f/[Gg] | d[Gd] Bd | d/e/f [Bd]/[Ae]/[Gf] | [GB][Ac] [Bd][ce] | [df][ce] [Bd][Ac] | %50
 [GB]2 g/f/e/d/ | [Ec]2 z!ff! E | A3 B | cd c(3E/^F/^G/ | x2 FA | [E^GBe][EGBe] z =G | c3 d | %57
 ef e(3G/A/B/ | c/B/c/d/ e/d/e/^f/ | [GBdg][GBdg] z [Dd]/[Dd]/ | g4 | g4 | gd/d/ [Gg][Dd] | %63
 !fermata![Gg]2!mf! [Gg]2 | B4 | B2 d2 | G4 | GA B[Bc] | [Bd]2 [cf]2 | [Bf]2 [Af]2 | [Ge]4- | %71
 [Ge]2 G2 | c d2 B | c [ce]2 [ca] | [Bg]>[GB] [GB][GB] | [GB]G/A/ B/A/G | d e2 ^c | d [Bf]2 [Ba] | %78
 [cg]>[Ec] [Ec][Ec] | [Ec]2!f! [Gg]2 | B4- | B2 d2 | G4- | GA B[Bc] | [Bd]2 [cf]2 | [Bf]2 [Af]2 | %86
 [Ge]4- | [Ge]2 G2 | c d2 B | c d2 =B | [Ac]>[Ac] [Ac][Ac] | x (3e/f/e/ _e=e | g a2 g | %93
 e[Gc] c[Ge] | d4 | [Ec]2!>(! [G_Bc]2 ||[K:F]{de} [FAf][FA]/[FA]/ [FA][FA] | %97
 [FA][FA] [FA]!>)!!p![FA] |: [Af]4 | [^Ge]2 [Gd]2 | [G=B][_Bd] [Ac]2- | [Ac][Af] [ce][Bd] | %102
 [Ac]2 [FA]2 | [FB]2 [Ac]2 | [A^c]4 | [Bd]4 | [EG]4- | [EG][EG] [FA][GB] | fe e2- | e^F GA | %110
 B2 [GBf]2 | [GBe]2 [GBd]2 | d3 ^c | [FAc]4 | [Af]4 | [^Ge]2 [Gd]2 | [G=B][_Bd] [Ac]2- | [Ac]F Ac | %118
 f2 [FAc]2 | [FB]2 [FA]2 | e3 d | d(3d/e/d/ ^cd | [Acf]4 |!<(! [Bceg]2 [=Bd^g]2!<)! | %124
!>(! [^cea]2 [^G=Bf]2!>)! |!p! [Ace]2 [Bd]2 | dc c2- | cd cg!dacoda!!D.S.! || f!<(!f ed | %129
 cB A!<)!!mf!G :|O [FAf]4- | [FAf] z!f! [FAf]2 |] %132
V:2
 E x x [FB] | [Ec] x3 | [Gdf]2 [Gce]2 | x4 || x4 | A2 A2 | x4 | A2 A2 | x4 | x4 | x4 | x4 | x4 | %13
 A2 A2 | x4 | A2 A2 | x4 | x4 | x4 | x4 | x4 | B-[GB]/A/ [GB]/[Ac]/[Bd]/[GB]/ | x4 | CG EC | x4 | %25
 ^c-[Ac]/B/ [Ac]/[Bd]/[ce]/[Ac]/ | x4 | z2 d2 | x4 | x4 | x4 | x4 | x4 | x4 | x4 | x3 G | x4 | %37
 A2 A2 | x4 | A2 A2 | x4 | x4 | x4 | x4 | x4 | A2 A2 | x4 | BG x2 | x4 | x4 | x2 [FB]2 | x4 | x4 | %53
 x4 | A/^G/A/B/ c/B/c/d/ | x4 | x4 | x4 | x3 c | x4 | x2 [GB]2 | x2 [GB]2 | x4 | x4 | x2 G2 | B,4 | %66
 x4 | x4 | x4 | x4 | x4 | x4 | x4 | x4 | x4 | x4 | x4 | x4 | x4 | x4 | x4 | x4 | x4 | x4 | x4 | %85
 x4 | x4 | x4 | x4 | _B4 | x4 | e2 x2 | G4- | G x3 | G2 F2 | x4 ||[K:F] x4 | x4 |: x4 | x4 | x4 | %101
 x4 | x4 | x4 | x4 | x4 | x4 | x4 | [GB]4- | [GB] x3 | x4 | x4 | [F^G]4 | x4 | x4 | x4 | x4 | x4 | %118
 x4 | x4 | [GB]4- | [GB]2 x2 | x4 | x4 | x4 | x4 | [GB]4- | [GB]4 || [FA]2 x2 | x4 :| x4 | x4 |] %132
V:3
 [C,E,]2 z [B,,F,] | [C,E,]2 z [C,E,] | [D,F,]2 [C,E,]2 | [B,,D,]G,,/A,,/ B,,/C,/D,/_E,/ || %4
 z [C,E,G,] B,,[A,,C,E,G,] | A,,[G,,C,E,G,] A,,[G,,C,E,G,] | z [C,E,G,] B,,[A,,C,E,G,] | %7
 A,,[G,,C,E,G,] A,,[G,,C,E,G,] | z [G,,D,F,G,] B,,[D,F,G,] | F,[D,F,G,] B,,[D,F,G,] | %10
 C,[G,,C,E,G,] C,[C,E,G,] | [C,E,G,]2 [B,,D,F,G,]2 | z [C,E,G,] B,,[A,,C,E,G,] | %13
 A,,[G,,C,E,G,] A,,[G,,C,E,G,] | z [C,E,G,] B,,[A,,C,E,G,] | A,,[G,,C,E,G,] A,,[G,,C,E,G,] | %16
 [B,,D,G,]G,,/B,,/ D,/G,,/B,,/D,/ | G,[^C,E,_B,] [C,E,B,][C,E,B,] | [D,G,B,]2 [C,D,A,]2 | %19
 [B,,D,G,]2 z2 | x [B,,D,] x B,, | x [D,F,] z2 | G,/A,/G,/F,/ E,/F,/E,/D,/ | %23
 x [E,G,]/[E,G,]/ [E,G,][E,G,] | x G, x [E,G,] | A,,[^C,E,G,] z2 | A,/B,/A,/G,/ F,/G,/F,/E,/ | %27
 D,4 | z [B,,D,F,] z [B,,D,F,] | z [B,,D,F,] z [B,,D,F,] | z [G,,C,E,] z [G,,C,E,] | %31
 z [G,,C,E,] z [G,,C,E,] | D,[A,,C,D,^F,] [C,_E,][A,,C,D,F,] | %33
 [B,,E,][A,,C,D,^F,] [A,,F,][A,,C,D,F,] | [G,,B,,D,G,]G,/G,/ G,G, | G,G, G,G, | %36
 z [C,E,G,] B,,[C,E,G,] | A,,[G,,C,E,G,] A,,[G,,C,E,G,] | z [C,E,G,] B,,[C,E,G,] | %39
 A,,[G,,C,E,G,] A,,[G,,C,E,G,] | z [G,,D,F,G,] B,,[D,F,G,] | F,[D,F,G,] B,,[D,F,G,] | %42
 C,[G,,C,E,G,] C,[C,E,G,] | [C,E,G,]2 [B,,D,F,G,]2 | z [C,E,G,] B,,[C,E,G,] | %45
 A,,[G,,C,E,G,] A,,[G,,C,E,G,] | z [G,,D,F,G,] B,,[D,F,G,] | [B,,F,][D,F,G,] [B,,F,][D,F,G,] | %48
 [G,,B,,][A,,C,] [B,,D,][C,E,] | [D,F,][C,E,] [B,,D,F,][A,,C,^F,] | [G,,B,,G,]2 [D,F,G,]2 | %51
 [C,E,G,]2 z E,, | z4 | z4 | [C,E,A,][C,E,A,] [A,,_E,][C,F,A,] | [B,,E,^G,][B,,E,G,] z2 | z4 | z4 | %58
 [C,E,G,][C,E,G,] [C,^F,][C,E,F,] | [B,,D,G,][B,,D,G,] z D,/D,/ | G,2 [C,G,]2 | G,2 [C,G,]2 | %62
 G,[D,D]/[D,D]/ [D,G,][G,,D,] | [D,G,]2 [D,G,]2 | B,G,/A,/ B,/A,/G,/A,/ | z [D,F,] z [D,F,] | %66
 DB,/C/ D/C/B,/C/ | D[A,,D,F,] B,,[C,D,F,] | [B,,D,F,]2 [C,F,]2 | [B,,F,]2 [A,,F,]2 | [G,,E,]4- | %71
 [G,,E,][C,E,G,]/[C,E,G,]/ [C,E,G,][C,E,G,] | z [G,,C,E,] z [G,,C,E,] | z [G,,C,E,] z [G,,C,E,] | %74
 z [B,,D,F,] z [B,,D,F,] | z [B,,D,F,] z [B,,D,F,] | z [B,,D,F,] z [B,,D,F,] | %77
 z [B,,D,F,] z [B,,D,F,] | z [G,,C,E,] z [G,,C,E,] | [G,,C,E,]2 [G,,G,]2 | B,G,/A,/ B,/A,/G,/A,/ | %81
 B,[B,,D,F,] z [B,,D,F,] | DB,/C/ D/C/B,/C/ | D[A,,D,F,] B,,[C,D,F,] | [B,,D,F,]2 [C,F,]2 | %85
 [B,,F,]2 [A,,F,]2 | [G,,E,]4- | [G,,E,][C,E,G,]/[C,E,G,]/ [C,E,G,][C,E,G,] | %88
 z [G,,C,E,] z [G,,C,E,] | z [_B,,C,E,] z [_B,,C,E,] | z [A,,C,F,] z [A,,C,F,] | %91
 z [^G,,B,,E,] z [G,,B,,E,] | z [G,,E,G,] z [C,E,G,] | z [C,E,G,] z [C,E,G,] | %94
 z [B,,D,F,] z [B,,D,F,] | [C,E,]2 [_B,,E,G,]2 || %96
[K:F]{D,E,} [A,,F,][C,F,A,]/[C,F,A,]/ [C,F,A,][C,F,A,] | [C,F,A,][C,F,A,] [C,F,A,][C,F,A,] |: %98
 z [A,,C,F,] z [A,,C,F,] | z [^G,,D,E,] z [G,,D,F,] | z [A,,C,F,] z [A,,C,F,] | %101
 z [A,,C,F,] z [A,,C,F,] | z [A,,C,F,] z [A,,C,F,] | z [A,,C,F,] z [A,,C,F,] | %104
 [^C,E,][C,E,G,] z [C,E,G,] | D,[B,,D,G,] z [B,,D,G,] | z [B,,C,E,G,] [B,,E,][B,,C,E,G,] | %107
 [B,,E,][B,,C,E,G,] z [B,,C,E,G,] | z [B,,C,E,G,] [B,,E,][B,,C,E,G,] | %109
 [B,,E,][B,,C,E,G,] z [B,,C,E,G,] | z [C,E,G,B,] [F,B,][C,E,G,B,] | %111
 [E,B,][C,E,G,B,] [D,B,][C,E,G,B,] | [D,^G,][=B,,D,] z [B,,D,G,] | z [C,F,A,] z [C,F,A,] | %114
 z [C,F,A,] z [C,F,A,] | z [D,E,^G,] z [D,F,G,] | z [C,F,A,] z [C,F,A,] | z [C,F,A,] z [C,F,A,] | %118
 z [C,F,A,] z [C,F,A,] | z [C,F,A,] z [C,F,A,] | z [D,G,B,] z [D,G,B,] | z [B,,D,G,] z [B,,D,G,] | %122
 z [C,F,A,] [C,F,A,][C,F,A,] | [C,G,]2 [D,^G,]2 | [^C,A,]2 [=B,,^G,]2 | [C,A,]2 [B,,D,]2 | %126
 z [G,,B,,E,] z [G,,B,,E,] | z [G,,B,,E,] z [G,,B,,E,] || [A,,F,]2 z2 | z4 :| %130
 [A,,F,][A,,C,F,]/[A,,C,F,]/ [A,,C,F,][A,,C,F,] | [A,,C,F,]2 [A,,C,F,]2 |] %132
V:4
 x4 | x4 | x4 | x4 || x4 | x4 | x4 | x4 | x4 | x4 | x4 | x4 | x4 | x4 | x4 | x4 | x4 | x4 | x4 | %19
 x4 | F,/G,/F,/E,/ D,/E,/D,/C,/ | B,, B,,2 [B,,D,F,] | x [C,E,] x C, | C,4 | %24
 E,/F,/E,/D,/ ^C,/D,/C,/B,,/ | x3 [^C,E,G,] | x [A,,D,F,] x [A,,D,] | %27
 z [A,,F,]/[A,,F,]/ [A,,F,][A,,F,] | x4 | x4 | x4 | x4 | x4 | x4 | x2 [D,F,]2 | [C,E,]2 [B,,D,]2 | %36
 x4 | x4 | x4 | x4 | x4 | x4 | x4 | x4 | x4 | x4 | x4 | x4 | x4 | x4 | x4 | x4 | x4 | x4 | x4 | %55
 x4 | x4 | x4 | x4 | x4 | x D, x D,/D,/ | x D, x D,/D,/ | x4 | x4 | x [B,,D,] x [B,,D,] | x4 | %66
 x [D,F,] x [D,F,] | x4 | x4 | x4 | x4 | x4 | x4 | x4 | x4 | x4 | x4 | x4 | x4 | x4 | %80
 x [B,,D,] x [B,,D,] | x4 | x [D,F,] x [D,F,] | x4 | x4 | x4 | x4 | x4 | x4 | x4 | x4 | x4 | x4 | %93
 x4 | x4 | x4 ||[K:F] x4 | x4 |: x4 | x4 | x4 | x4 | x4 | x4 | x4 | x4 | x4 | x4 | x4 | x4 | x4 | %111
 x4 | x4 | x4 | x4 | x4 | x4 | x4 | x4 | x4 | x4 | x4 | x4 | x4 | x4 | x4 | x4 | x4 || x4 | x4 :| %130
 x4 | x4 |] %132
V:5
 x4 | x4 | x4 | x4 || x4 | x4 | x4 | x4 | x4 | x4 | x4 | x4 | x4 | x4 | x4 | x4 | x4 | x4 | x4 | %19
 x4 | x4 | x4 | x4 | x4 | x4 | x4 | x4 | [df]2 x A | x4 | x4 | x4 | x4 | x4 | x4 | x4 | x4 | x4 | %37
 x4 | x4 | x4 | x4 | x4 | x4 | x4 | x4 | x4 | x4 | x4 | x4 | x4 | x4 | x4 | x4 | x4 | x4 | x4 | %56
 x4 | x4 | x2 A2 | x4 | x [FAc] x [Dd]/[Dd]/ | x [FAc] x [Dd]/[Dd]/ | x4 | x4 | x4 | x4 | x4 | x4 | %68
 x4 | x4 | x4 | x4 | x4 | x4 | x4 | x4 | x4 | x4 | x4 | x4 | x4 | x4 | x4 | x4 | x4 | x4 | x4 | %87
 x4 | x4 | x4 | x4 | ^G4 | x4 | x4 | x4 | x4 ||[K:F] x4 | x4 |: x4 | x4 | x4 | x4 | x4 | x4 | x4 | %105
 x4 | x4 | x4 | x4 | x4 | x4 | x4 | x4 | x4 | x4 | x4 | x4 | x4 | x4 | x4 | x4 | x4 | x4 | x4 | %124
 x4 | x4 | x4 | x4 || x4 | x4 :| x4 | x4 |] %132
V:6
 C,2 z G,, | C,2 z C, | G,,2 G,,2 | G,,2 z2 || C,2 G,,2 | C,2 C,2 | C,2 G,,2 | C,2 C,2 | D,2 G,,2 | %9
 D,2 G,,2 | C,2 G,,2 | C,2 G,,2 | C,2 G,,2 | C,2 C,2 | C,2 G,,2 | C,2 C,2 | G,,2 z2 | z ^C, C,C, | %18
 D,2 D,2 | G,,2 z2 | G,,2 D,2 | B,,2 G,,2 | C,2 G,,2 | C,G, E,C, | A,,2 E,2 | ^C,2 A,,2 | %26
 D,2 A,,2 | D,F, D,A,, | G,,2 B,,2 | D,2 G,,2 | C,2 G,,2 | C,2 C,2 | D,2 C,2 | B,,2 A,,2 | %34
 G,,2 G,,2 | G,,2 G,,2 | C,2 G,,2 | C,2 C,2 | C,2 G,,2 | C,2 C,2 | D,2 G,,2 | D,2 G,,2 | C,2 G,,2 | %43
 C,2 G,,2 | C,2 G,,2 | C,2 C,2 | G,,2 B,,2 | G,,2 G,,2 | G,,A,, B,,C, | D,E, F,^F, | G,2 G,,2 | %51
 C,2 z E,, | A,,3 B,, | C,D, C,B,, | A,,2 F,,2 | E,,E,, z G,, | C,3 D, | E,F, E,D, | C,2 A,,2 | %59
 G,,G,, z D,,/D,,/ | G,,2 G,,2 | G,,2 G,,2 | G,,2 x2 | G,,2 z2 | D,2 G,,2 | D,2 G,,2 | D,2 G,,2 | %67
 D,2 G,,2 | G,,A,, B,,C, | D,G,, A,,B,, | C,C, G,,E,, | C,,2 z2 | C,2 G,,2 | C,2 G,,2 | D,2 G,,2 | %75
 D,2 G,,2 | D,2 G,,2 | D,2 G,,2 | C,2 G,,2 | C,2 z2 | D,2 G,,2 | D,2 G,,2 | D,2 G,,2 | D,2 G,,2 | %84
 G,,A,, B,,C, | D,G,, A,,B,, | C,C, G,,E,, | C,,2 z2 | C,4 | _B,,4 | A,,4 | ^G,,4 | G,,2 G,,2 | %93
 G,,2 G,,2 | G,,G,, A,,B,, | C,2 C,2 ||[K:F] F,,2 F,2 | C,2 A,,2 |: F,,2 F,,2 | F,,2 F,,2 | %100
 F,,2 C,,2 | F,,2 C,,2 | F,,2 C,,2 | F,,2 C,,2 | A,,2 A,,2 | B,,2 B,,2 | G,,2 C,,2 | G,,2 C,,2 | %108
 G,,2 C,,2 | G,,2 C,,2 | G,,2 C,,2 | G,,2 C,,2 | F,,2 F,,2 | F,,2 F,,2 | F,,2 F,,2 | F,,2 F,,2 | %116
 F,,2 C,,2 | F,,2 C,,2 | F,,2 C,,2 | F,,2 C,,2 | B,,2 B,,2 | B,,2 B,,2 | F,,2 F,,2 | E,,2 D,,2 | %124
 ^C,,2 ^G,,2 | A,,2 B,,2 | C,2 C,2 | C,2 C,2 || F,,F, E,D, | C,B,, A,,G,, :| F,,F, C,A,, | %131
 F,,2 F,,2 |] %132
V:7
 x4 | x4 | x4 | x4 || x4 | x4 | x4 | x4 | x4 | x4 | x4 | x4 | x4 | x4 | x4 | x4 | x4 | x4 | x4 | %19
 x4 | x4 | x4 | x4 | x4 | x4 | x4 | x4 | x4 | x4 | x4 | x4 | x4 | x4 | x4 | x4 | x4 | x4 | x4 | %38
 x4 | x4 | x4 | x4 | x4 | x4 | x4 | x4 | x4 | x4 | x4 | x4 | x4 | x4 | x4 | x4 | x4 | x4 | x4 | %57
 x4 | x4 | x4 | x3 D,,/D,,/ | x3 D,,/D,,/ | x2 G,,D,, | x4 | x4 | x4 | x4 | x4 | x4 | x4 | x4 | %71
 x4 | x4 | x4 | x4 | x4 | x4 | x4 | x4 | x4 | x4 | x4 | x4 | x4 | x4 | x4 | x4 | x4 | x4 | x4 | %90
 x4 | x4 | x4 | x4 | x4 | x4 ||[K:F] x4 | x4 |: x4 | x4 | x4 | x4 | x4 | x4 | x4 | x4 | x4 | x4 | %108
 x4 | x4 | x4 | x4 | x4 | x4 | x4 | x4 | x4 | x4 | x4 | x4 | x4 | x4 | x4 | x4 | x4 | x4 | x4 | %127
 x4 || x4 | x4 :| x4 | x4 |] %132

